X: 3
T: King George IV
R: strathspey
M: 4/4
L: 1/8
K: Ador
B/|A2A>B c>BA>e|A2A>c B>AG>B|A2A>B c>de>c|B>dg>e d/c/B/A/ G3/2:|d/|^c<eA>e c<e d/B/A|^c<eA>e d/c/B/A/ G>d|^c<eA>e c<ee>f|g>ag>e d/c/B/A/ G3/2:|


Tune 1114	Setting 14372

